src/main/resources/icons/AllIcons/debugger/question_badge.svg

<!-- Copyright 2000-2021 JetBrains s.r.o. Use of this source code is governed by the Apache 2.0 license that can be found in the LICENSE file. -->
<svg xmlns="http://www.w3.org/2000/svg" width="7" height="9" viewBox="0 0 7 9">
  <defs>
    <linearGradient id="question_badge-a" x1="0%" x2="63.794%" y1="10.273%" y2="100%">
      <stop offset="0%" stop-color="#F0F0F0"/>
      <stop offset="100%" stop-color="#F0F0F0" stop-opacity="0"/>
    </linearGradient>
  </defs>
  <g fill="none" fill-rule="evenodd">
    <path fill="url(#question_badge-a)" fill-rule="nonzero" d="M3.58333333,0.3 C5.30985393,0.3 6.61666667,1.35990868 6.61666667,3.02105263 C6.61666667,3.86930319 6.30802007,4.38355947 5.55457108,5.19479177 C5.50140179,5.25197922 5.50140179,5.25197922 5.44998888,5.30739999 C5.00482862,5.78830552 4.86666667,6.01929197 4.86666667,6.30526316 L4.86666667,9 L2.3,9 L2.3,6.30526316 C2.3,5.27554749 2.65829831,4.60816076 3.38189659,3.89000307 C3.42971857,3.84254065 3.66657913,3.61339091 3.72501151,3.55439242 C3.97562033,3.30135565 4.05,3.17175634 4.05,3.02105263 C4.05,2.82718704 3.9062243,2.71052632 3.58333333,2.71052632 C3.26044236,2.71052632 3.11666667,2.82718704 3.11666667,3.02105263 L3.11666667,3.72105263 L0.55,3.72105263 L0.55,3.02105263 C0.55,1.35990868 1.85681274,0.3 3.58333333,0.3 Z"/>
    <path fill="#6E6E6E" fill-rule="nonzero" d="M3,8 L4.16666667,8 L4.16666667,6.89473684 L3,6.89473684 L3,8 Z M3.58333333,1 C2.29416667,1 1.25,1.69726316 1.25,3 L2.41666667,3 C2.41666667,2.35157895 2.94166667,2 3.58333333,2 C4.225,2 4.75,2.35157895 4.75,3 C4.75,4.17894737 3,4.38947368 3,6.30526316 L4.16666667,6.30526316 C4.16666667,4.97894737 5.91666667,4.47368421 5.91666667,3 C5.91666667,1.69726316 4.8725,1 3.58333333,1 Z"/>
  </g>
</svg>

<svg xmlns="http://www.w3.org/2000/svg" width="7" height="9" viewBox="0 0 7 9"><rect id="frame" width="7" height="9" fill="none"/><defs><linearGradient id="a" x1="0%" x2="63.794%" y1="10.273%" y2="100%"><stop offset="0%" stop-color="#F0F0F0"/><stop offset="100%" stop-color="#F0F0F0" stop-opacity="0"/></linearGradient></defs><g fill="none" fill-rule="nonzero"><path fill="url(#a)" d="M3.583.3C5.31.3 6.617 1.36 6.617 3.021c0 .848-.309 1.363-1.062 2.174l-.105.112c-.445.481-.583.712-.583.998V9H2.3V6.305c0-1.03.358-1.697 1.082-2.415.048-.047.285-.277.343-.336.25-.253.325-.382.325-.533 0-.194-.144-.31-.467-.31-.323 0-.466.116-.466.31v.7H.55v-.7C.55 1.36 1.857.3 3.583.3z"/><path fill="#6E6E6E" d="M3 8h1.167V6.895H3V8zm.583-7C2.294 1 1.25 1.697 1.25 3h1.167c0-.648.525-1 1.166-1 .642 0 1.167.352 1.167 1C4.75 4.179 3 4.39 3 6.305h1.167c0-1.326 1.75-1.831 1.75-3.305 0-1.303-1.045-2-2.334-2z"/></g></svg>
